COLOR/action 16/16/password.svg

<svg height="16.000032" width="16.000061" xmlns="http://www.w3.org/2000/svg"><circle cx="-8" cy="-8.000053" fill="#c8c4b7" r="7.99998" stroke-width="1.066664" transform="scale(-1)"/><g transform="matrix(0 -1.066664 -1.066664 0 -.533312 -.533294)"><circle cx="-8.00005" cy="-8" opacity=".1" r="5.769231"/><circle cx="-8.00005" cy="-8" fill="#f7f7f7" r="5.769231"/><circle cx="-8.00005" cy="-8" fill="#aea795" r="4.615385"/><circle cx="-8.00005" cy="-8" fill="#f7f7f7" r="3.461539"/></g><g stroke-width="1.066664"><path d="m6.7692341 5.5385203h2.4615318v4.9230647h-2.4615318z" fill="#3b3b3b"/><path d="m8 .00003837a7.9999797 7.9999797 0 0 0 -7.99997973 7.99997973 7.9999797 7.9999797 0 0 0 .01041663.3062493 7.9999797 7.9999797 0 0 1 7.9895631-7.77289705 7.9999797 7.9999797 0 0 1 7.989563 7.69373045 7.9999797 7.9999797 0 0 0 .010417-.2270827 7.9999797 7.9999797 0 0 0 -7.99998-7.99997973z" fill="#fff" opacity=".3"/><path d="m8.0000203 16.000032a7.9999797 7.9999797 0 0 0 7.9999797-7.999979 7.9999797 7.9999797 0 0 0 -.010453-.3062499 7.9999797 7.9999797 0 0 1 -7.989563 7.7728969 7.9999797 7.9999797 0 0 1 -7.98956269-7.6937302 7.9999797 7.9999797 0 0 0 -.01042131.2270832 7.9999797 7.9999797 0 0 0 7.9999797 7.999979z" opacity=".2"/></g></svg>

<?xml version="1.0" encoding="UTF-8" standalone="no"?>
<svg
   xmlns:dc="http://purl.org/dc/elements/1.1/"
   xmlns:cc="http://creativecommons.org/ns#"
   xmlns:rdf="http://www.w3.org/1999/02/22-rdf-syntax-ns#"
   xmlns:svg="http://www.w3.org/2000/svg"
   xmlns="http://www.w3.org/2000/svg"
   xmlns:sodipodi="http://sodipodi.sourceforge.net/DTD/sodipodi-0.dtd"
   xmlns:inkscape="http://www.inkscape.org/namespaces/inkscape"
   height="16.000032"
   width="16.000061"
   version="1.1"
   id="svg22"
   sodipodi:docname="password.svg"
   inkscape:version="0.92.4 (5da689c313, 2019-01-14)">
  <metadata
     id="metadata28">
    <rdf:RDF>
      <cc:Work
         rdf:about="">
        <dc:format>image/svg+xml</dc:format>
        <dc:type
           rdf:resource="http://purl.org/dc/dcmitype/StillImage" />
      </cc:Work>
    </rdf:RDF>
  </metadata>
  <defs
     id="defs26" />
  <sodipodi:namedview
     pagecolor="#ffffff"
     bordercolor="#666666"
     borderopacity="1"
     objecttolerance="10"
     gridtolerance="10"
     guidetolerance="10"
     inkscape:pageopacity="0"
     inkscape:pageshadow="2"
     inkscape:window-width="1920"
     inkscape:window-height="1016"
     id="namedview24"
     showgrid="false"
     inkscape:zoom="14.74997"
     inkscape:cx="-4.9830467"
     inkscape:cy="8.0000161"
     inkscape:window-x="0"
     inkscape:window-y="27"
     inkscape:window-maximized="1"
     inkscape:current-layer="g14" />
  <circle
     cx="-8"
     cy="-8.0000525"
     r="7.9999795"
     transform="scale(-1)"
     id="circle2"
     style="fill:#c8c4b7;stroke-width:1.06666398" />
  <g
     transform="matrix(0,-1.066664,-1.066664,0,-0.53331172,-0.5332936)"
     id="g14">
    <circle
       cx="-8.0000496"
       cy="-8"
       r="5.7692308"
       id="circle4"
       style="opacity:0.1" />
    <circle
       cx="-8.0000496"
       cy="-8"
       r="5.7692308"
       id="circle6"
       style="fill:#f7f7f7" />
    <circle
       cx="-8.0000496"
       cy="-8"
       r="4.6153851"
       id="circle8"
       style="fill:#aea795" />
    <circle
       cx="-8.0000496"
       cy="-8"
       r="3.461539"
       id="circle12"
       style="fill:#f7f7f7" />
  </g>
  <path
     d="M 6.7692341,5.5385203 H 9.2307659 V 10.461585 H 6.7692341 Z"
     id="path16"
     inkscape:connector-curvature="0"
     style="fill:#3b3b3b;stroke-width:1.06666398" />
  <path
     d="M 8,3.837e-5 A 7.9999797,7.9999797 0 0 0 2.027e-5,8.0000181 7.9999797,7.9999797 0 0 0 0.0104369,8.3062674 7.9999797,7.9999797 0 0 1 8,0.53337035 7.9999797,7.9999797 0 0 1 15.989563,8.2271008 7.9999797,7.9999797 0 0 0 15.99998,8.0000181 7.9999797,7.9999797 0 0 0 8,3.837e-5 Z"
     id="path18"
     inkscape:connector-curvature="0"
     style="opacity:0.3;fill:#ffffff;stroke-width:1.06666398" />
  <path
     d="M 8.0000203,16.000032 A 7.9999797,7.9999797 0 0 0 16,8.000053 7.9999797,7.9999797 0 0 0 15.989547,7.6938031 7.9999797,7.9999797 0 0 1 7.999984,15.4667 7.9999797,7.9999797 0 0 1 0.01042131,7.7729698 7.9999797,7.9999797 0 0 0 0,8.000053 7.9999797,7.9999797 0 0 0 7.9999797,16.000032 Z"
     id="path20"
     inkscape:connector-curvature="0"
     style="opacity:0.2;stroke-width:1.06666398" />
</svg>
